packages/dnb-ui-lib/assets/icons/support.svg

<svg width="16" height="16" viewBox="0 0 16 16" fill="none" xmlns="http://www.w3.org/2000/svg">
<path d="M1 7.28522L4.33768 7.62594C4.70111 7.66375 5.04707 7.80703 5.33624 8.03948L7.98242 10.18C8.31262 10.4359 8.5166 10.8313 8.53911 11.2594C8.56087 11.529 8.4689 11.7879 8.29788 11.976M4.95179 10.9499L6.66682 12.0709C7.06359 12.3446 7.5666 12.3897 8.00239 12.1905C8.11641 12.1396 8.21617 12.0659 8.29788 11.976M1 11.6849L6.12953 14.0226C6.4233 14.1566 6.75261 14.2161 7.08165 14.1947C12.0685 13.6156 14.5619 13.326 14.5619 13.326C14.5619 12.3134 13.5599 11.9678 12.9633 11.976H8.29788M10.3271 8.5L6.63959 4.69027C5.97493 4.03239 5.81021 3.02683 6.23077 2.19452C6.54445 1.57323 7.14049 1.13917 7.83271 1.02792C8.52492 0.916672 9.22892 1.14179 9.72482 1.63296L10.3271 2.22919L10.9294 1.63296C11.4253 1.14179 12.1293 0.916672 12.8215 1.02792C13.5137 1.13917 14.1097 1.57323 14.4234 2.19452C14.8434 3.02648 14.6789 4.0313 14.015 4.68913L10.3271 8.5Z" stroke="black" stroke-width="1.5" stroke-linecap="round" stroke-linejoin="round"/>
</svg>

<svg width="16" height="16" viewBox="0 0 16 16" fill="none" xmlns="http://www.w3.org/2000/svg"><path d="M1 7.285l3.338.34c.363.039.71.182.998.414l2.646 2.141c.33.256.535.651.557 1.08a.952.952 0 01-.241.716M4.952 10.95l1.715 1.12c.397.275.9.32 1.335.12a.889.889 0 00.296-.214M1 11.685l5.13 2.338c.293.134.623.193.952.172l7.48-.869c0-1.013-1.002-1.358-1.599-1.35H8.298m2.03-3.476L6.64 4.69a2.146 2.146 0 01-.41-2.495 2.195 2.195 0 013.494-.562l.603.596.602-.596a2.195 2.195 0 013.494.562c.42.831.256 1.836-.408 2.494L10.327 8.5z" stroke="#000" stroke-width="1.5" stroke-linecap="round" stroke-linejoin="round"/></svg>
